svgs/sharp-duotone-thin/circle-bookmark.svg

<svg xmlns="http://www.w3.org/2000/svg" viewBox="0 0 512 512"><!--! Font Awesome Pro 7.1.0 by @fontawesome - https://fontawesome.com License - https://fontawesome.com/license (Commercial License) Copyright 2025 Fonticons, Inc. --><path opacity=".4" fill="currentColor" d="M16 256a240 240 0 1 0 480 0 240 240 0 1 0 -480 0zM160 128l192 0 0 256-16-10.7-80-53.3-80 53.3-16 10.7 0-256z"/><path fill="currentColor" d="M256 16a240 240 0 1 1 0 480 240 240 0 1 1 0-480zm0 496a256 256 0 1 0 0-512 256 256 0 1 0 0 512zm8.9-205.3l-8.9-5.9-8.9 5.9-71.1 47.4 0-210.1 160 0 0 210.1-71.1-47.4zM160 384l16-10.7 80-53.3 80 53.3 16 10.7 0-256-192 0 0 256z"/></svg>

<svg xmlns="http://www.w3.org/2000/svg" viewBox="0 0 512 512"><!--! Font Awesome Pro 6.7.2 by @fontawesome - https://fontawesome.com License - https://fontawesome.com/license (Commercial License) Copyright 2024 Fonticons, Inc. --><defs><style>.fa-secondary{opacity:.4}</style></defs><path class="fa-secondary" d="M16 256a240 240 0 1 0 480 0A240 240 0 1 0 16 256zM160 128l16 0 160 0 16 0 0 16 0 220.8 0 19.2-16-10.7L256 320l-80 53.3L160 384l0-19.2L160 144l0-16z"/><path class="fa-primary" d="M256 16a240 240 0 1 1 0 480 240 240 0 1 1 0-480zm0 496A256 256 0 1 0 256 0a256 256 0 1 0 0 512zm8.9-205.3l-8.9-5.9-8.9 5.9L176 354.1 176 144l160 0 0 210.1-71.1-47.4zM160 384l16-10.7L256 320l80 53.3L352 384l0-19.2L352 144l0-16-16 0-160 0-16 0 0 16 0 220.8 0 19.2z"/></svg>
